X:435
T:Dance in the Prior Claim. RH.436
R:jig
S:Rev.R.Harrison’s MS,c1815,Cumbria
O:England
A:Temple Sowerby,Cumbria
Z:vmp.Simon Wilson. Review PJH, 2008.
M:6/8
L:1/8
Q:3/8=120
K:D
f3 faf|d2a f2d|e3 efg|Bed cBA|\
f3 faf|d2a f2d|efg ABc|d3 d2z||!
fef def|gag fed|cde ABc|d2f a2g|\
fef def|gag fed|cde ABc|d3 D2z|]

